X:1
T:Manhattan Air
R:slow air
C:Robert Eckert
S:Robert Eckert <Robert@WHISTLEPLAYERS.ZZN.COM> irtrad-l 2001-9-21
H:In memmory of the victims of the terrorist attacks on the USA on September 11th, 2001.
H:---
H:In memmory of all those who ever had to die because of national, religious, racial or any other kind of hatred.
A:Bratislava
O:Slovakian
Z:id:Eckert-own-21
M:2/4
L:1/8
Q:1/4=100 "or better" 1/4=75
K:Am
AB | c2 Bc | A2 dc | B2 AB | G2 cB |
A2 GF | ED CD | E4 | E2 CD |
E2 DE | C2 FE | D2 CD | B,2 ED |
C2 B,A, | G,A, B,G, | A,4 | A,2 :| E2 |:
[A3E3] E | A2 B2 | [c2G2] Bc | A2 dc |
B2 AB | G2 cB | AG ED | E4 |
E2 DE | C2 FE | D2 CD | B,2 ED |
C2 B,A, | G,A, B,G, | A,4 | A,2 E2 :|
